!!!COM: Josephine Lang
!!!CNT: Deutsch
!!!TXO: Deutsch
!!!OTL: "Der Winter"
!!!LYR: Feldmann
!!!OPS: Op. 15
!!!ONM: No. 5
!!!ENC: Alyona Dzerbina, melody phrasing added by LVH
!!!YOR: Josephine Lang: Selected Songs
!!!YOR: Da Capo Press, 1982
!!!ODT: 1834/
!!NB: Vocal melody only encoded.
**kern	**text
*staff1	*staff1
*clefG2	*
*k[b-e-a-d-]	*
*met(C)	*
*M4/4	*
*MM[Allegretto mosso]	*
=0	=0
2.r	.
{4c	{Der
=1!|:	=1!|:
4.cc	Win-
8cc	-ter
4cc	ist
4cc	ein
=2	=2
4.cc	bo2-
8b-	-ser
4b-	Gast,
4a-	ich
=3	=3
4a-	fu2rcht'
4g	ihn
4f	wie
8r	.
8en	Ge-
=4	=4
4f	-spens-
4c}	-ter,}
4r	.
{4c	{die
=5	=5
4.cc	scho2n-
8cc	-ste
4dd-	Aus-
4cc	-sicht
=6	=6
4.cc	rabt
8b-	er
4b-	mir
4a-	drch
=7	=7
4a-	sei-
4g	-ne
4f	Dop-
4g	-pel-
=8	=8
2a-	-fen-
4e-}	-ster!}
4r	.
=9	=9
1r	.
=10	=10
1r	.
=11	=11
1r	.
=12	=12
2r	.
4r	.
{8ee-	{Was
8ff	|
=13	=13
4ee-	nu2-
4b-	-tzen
4e-	mir
8ee-	die
8ff	|
=14	=14
4.ee-	Blu-
8b-	-men
4e-	all',
4dd-	die
=15	=15
4cc	er
4b-	an's
4a-	Fen-
4b-	-ster
=16	=16
2cc}	malt}
4r	.
{4dd-	{wenn
=17	=17
4.cc	nicht
8b-	der
4e-	Blu-
4dd-	-men
=18	=18
4.cc	Ko2-
8b-	-ni-
4e-	-gin
4a-	dem
=19	=19
4g	Aug'-
4f	-ent-
4en	-ge-
4f	-gen
=20	=20
[1cc	strahlt,
=21	=21
1cc_	|
=22	=22
2..cc]}	|}
{8cc	{dem
=23	=23
4aa-	Aug'
8gg	ent-
8ff	|
8ee-	-ge-
8dd-	|
8cc	-gen
8b-	|
=24	=24
(1cc	strahlt!
=25	=25
1ddn	|
=26	=26
[1g)	|
=27	=27
2g]}	|}
4r	.
{8a-	{Was
8b-	|
=28	=28
4cc	nu2-
4cc	-tzen
4ff	mir-
8r	.
8ff	die
=29	=29
4.ee-	Blu-
8dd-	-men
4cc	all',
4b-	die
=30	=30
4a-	er
4g	an's
4.cc	Fen-
8b-	-ster
=31	=31
2a-}	malt}
4r	.
{8a-	{wenn-
8b-	|
=32	=32
4cc	-nicht
4cc	der
4ff	Blu-
4ff	-men
=33	=33
4.gg-	Ko2-
8ff	-ni-
8ee-	-gin
8dd-	|
8cc	dem
8b-	|
=34	=34
4a-	Aug'-
8g	ent-
8f	|
4en	-ge-
fq	|
eq	|
dnq	|
eq	|
8.a-	|
16g	-gen
=35	=35
2f}	strahlt!}
2r	.
=36	=36
1r	.
=37	=37
1r	.
=38	=38
1r	.
=39	=39
1r	.
=40	=40
1r	.
=41	=41
1r	.
=42	=42
1r	.
=43	=43
1r	.
==	==
*-	*-
